X:165
T:Hawk's Humour
M:2/4
L:1/8
B:Thompson's Compleat Collection of 200 Favourite Country Dances, vol. 1 (London, 1757)
Z:Transcribed and edited by Flynn Titford-Mock, 2007
Z:abc's:AK/Fiddler's Companion
K:A
Aece|Aece|Aedc|B/B/B B2|Aece|aecA|BcdB|A/A/A A2:|
|:aecA|aecA|aecA|B/B/B B2|ABcd|eaga|ecdB|A/A/A A2:|
|:AEAE|CEAc|BAGF|E/E/E E2|AEAE|CEDF|EDCB,|A,/A,/A, A,2:|

